icon/ir/verified-badge.svg

<svg stroke-width="1.5" viewBox="0 0 24 24" fill="none" xmlns="http://www.w3.org/2000/svg" height="1em" width="1em">
  <path d="M11.5283 1.5999C11.7686 1.29437 12.2314 1.29437 12.4717 1.5999L14.2805 3.90051C14.4309 4.09173 14.6818 4.17325 14.9158 4.10693L17.7314 3.3089C18.1054 3.20292 18.4799 3.475 18.4946 3.86338L18.6057 6.78783C18.615 7.03089 18.77 7.24433 18.9984 7.32823L21.7453 8.33761C22.1101 8.47166 22.2532 8.91189 22.0368 9.23478L20.4078 11.666C20.2724 11.8681 20.2724 12.1319 20.4078 12.334L22.0368 14.7652C22.2532 15.0881 22.1101 15.5283 21.7453 15.6624L18.9984 16.6718C18.77 16.7557 18.615 16.9691 18.6057 17.2122L18.4946 20.1366C18.4799 20.525 18.1054 20.7971 17.7314 20.6911L14.9158 19.8931C14.6818 19.8267 14.4309 19.9083 14.2805 20.0995L12.4717 22.4001C12.2314 22.7056 11.7686 22.7056 11.5283 22.4001L9.71949 20.0995C9.56915 19.9083 9.31823 19.8267 9.08421 19.8931L6.26856 20.6911C5.89463 20.7971 5.52014 20.525 5.50539 20.1366L5.39427 17.2122C5.38503 16.9691 5.22996 16.7557 5.00164 16.6718L2.25467 15.6624C1.88986 15.5283 1.74682 15.0881 1.96317 14.7652L3.59221 12.334C3.72761 12.1319 3.72761 11.8681 3.59221 11.666L1.96317 9.23478C1.74682 8.91189 1.88986 8.47166 2.25467 8.33761L5.00165 7.32823C5.22996 7.24433 5.38503 7.03089 5.39427 6.78783L5.50539 3.86338C5.52014 3.475 5.89463 3.20292 6.26857 3.3089L9.08421 4.10693C9.31823 4.17325 9.56915 4.09173 9.71949 3.90051L11.5283 1.5999Z" stroke="currentColor" stroke-width="1.5"/>
  <path d="M9 12L11 14L15 10" stroke="currentColor" stroke-linecap="round" stroke-linejoin="round"/>
</svg>

<svg width="24" height="24" stroke-width="1.5" fill="none" xmlns="http://www.w3.org/2000/svg"><path d="M11.528 1.6a.6.6 0 0 1 .944 0l1.809 2.3a.6.6 0 0 0 .635.207l2.815-.798a.6.6 0 0 1 .764.554l.11 2.925a.6.6 0 0 0 .393.54l2.747 1.01a.6.6 0 0 1 .292.897l-1.63 2.431a.6.6 0 0 0 0 .668l1.63 2.431a.6.6 0 0 1-.292.897l-2.747 1.01a.6.6 0 0 0-.392.54l-.111 2.925a.6.6 0 0 1-.764.554l-2.815-.798a.6.6 0 0 0-.636.206L12.473 22.4a.6.6 0 0 1-.944 0L9.72 20.1a.6.6 0 0 0-.635-.207l-2.815.798a.6.6 0 0 1-.764-.554l-.11-2.925a.6.6 0 0 0-.393-.54l-2.747-1.01a.6.6 0 0 1-.292-.897l1.63-2.431a.6.6 0 0 0 0-.668l-1.63-2.431a.6.6 0 0 1 .292-.897l2.747-1.01a.6.6 0 0 0 .392-.54l.111-2.925a.6.6 0 0 1 .764-.554l2.815.798A.6.6 0 0 0 9.72 3.9L11.53 1.6Z" stroke="currentColor"/><path d="m9 12 2 2 4-4" stroke="currentColor" stroke-linecap="round" stroke-linejoin="round"/></svg>
